X:31
T:Doctors Commons. JJo8.031
B:J.Johnson Choice Collection Vol 8 1758
Z:vmp.Simon Wilson 2013 www.village-music-project.org.uk
M:6/8
L:1/8
Q:3/8=120
K:Bb
|:F|B,FB FBd|Bdf dfb|gfe dcB|cdB AGF|
B,FB FBd|Bdf =egb|agf cf=e|{=e}f3-f2:|
|:f|fdc {c}=B2d|eGF EDC|ecB{B}A2c|dFE DCB,|
A,CE DFB|FBd Bdf|gab dec|{c}B3-B2:|

